X:1
T:Accipe dilecte mi
T:Giovanni Massiccio
T:Source : Ghirlanda Sacra---Venetia---B.Magni ( Ang.Gardano)---1625. Editor : André Vierendeels (04/10/18) Notes : Original clefs : C1, F4 Note values have been halved in 3-beat measures Music collected by Leonardo Simonetti 
T:Accipe dilecte mi
T:©
T:©
T:©
T:©
T:©
T:©
T:©
C:Giovanni Massiccio
Z:©
%%score 1 { 2 | 3 }
L:1/8
Q:1/4=120
M:4/4
K:F
V:1 treble nm="Soprano" snm="S"
V:2 treble nm="MusicXML Part"
V:3 bass 
V:1
 G6 A/G/F/E/ | F>G A>F G>A F>G | E4 z GFD | E8 | z2 c4 d/c/B/A/ | B>c d>B c>d B>c | A4 z cBG | A8 | %8
w: Ac- * * * *|* * * * * * * ci-|pe, di- le- cte|mi,|Ac- * * * *|* * * * * * * ci-|pe, di- le- cte|mi,|
 z4 z2 GF | BAcB A3 G | G8 | z4 z2 ED | FEGF E3 D | D8 | z4 z2 d=B | cd_ed c3 B | B4 z2 B2 | %17
w: pul- *|cher- * ri- mas ro- *|sas,|pul- *|cher- * ri- mas ro- *|sas,|pul- *|cher- * ri- mas ro- *|sas, pul-|
 =B6 cd | ^F2 G4 F2 | G8 | z8 | z DFG A4 | A2 dd d4- | d2 B/A/B/G/ A3 G | G8 | z8 | z GBc d4 | %27
w: cher- ri- mas|ro- * *|sas,||quas ti- bi man-|dat Ca- ta- ri-|* na _ _ _ Vir- *|go,||quas ti- bi man-|
 d2 BB _e4- | e2 d/c/d/_e/ d4 | c8 | GF AG BA cB | A4- A3 G | G8 | z4 z2 f/e/d/c/ | %34
w: dat Ca- ta- ri-|* na _ _ _ Vir-|go,|Ca- * ta- * ri- * na- *|Vir- * *|go,|de _ _ _|
 B2 c/B/A/G/ A4 | G8 | z4 z2 c/B/A/G/ | A2 B/A/G/F/ G4 | F8 | z G/A/ B/c/d/B/ _e4- | %40
w: Pa- ra- * * * di-|so,|de _ _ _|Pa- ra- * * * di-|so|Spon- * * * * * *|
 e2 d/c/d/B/ c3 B | B8 | z B/c/ d/e/f/d/ _e4- | e2 _e/d/e/c/ d3 c | c4 z2 A/G/F/E/ | %45
w: * si _ _ _ su- *|i,|Spon- * * * * * *|* si _ _ _ su- *|i, de _ _ _|
 F2 G/F/E/D/ E3 D | D8 | z D/E/ F/G/A/F/ B4- | B2 A/G/A/F/ G4 | F4 A4- | A2 F/E/F/D/ E4 | %51
w: Pa- ra- * * * di- *|so|Spon- * * * * * *|* si _ _ _ su-|i, Spon-|* si _ _ _ su-|
 D4 z2 d2- | d2 B/A/B/G/ A3 G |[M:3/4] G4 c2 | A3 A AA | BA Bc A2 | G4 z2 | z2 z2 d2 | B3 A BB | %59
w: i, Spon-|* si _ _ _ su- *|i, cum|quo il- la lae-|ta- tur et ex- sul-|tat,|cum|quo il- la lae-|
 cB cd c2 | B4 z2 | z6 | z2 z2 c2 | c3 B cc | dc d_e d2 |[M:4/4] c8 | z4 z2 dB | cd _ed c2 B2 | %68
w: ta- tur et ex- sul-|tat||cum|quo il- la lae-|ta- tur et ex- sul-|tat|et _|ex- * sul- * * tat,|
 z4 z2 BG | AB cB A2 G2 | z8 | z2 d4 c/B/A/G/ | F/D/E/F/ G4 ^F2 | G8 |] %74
w: et _|ex- * sul- * * tat,||et ex- * * *|sul- * * * * *|tat.|
V:2
 z8 | z8 | z8 | z8 |"^BC" z8 | z8 | z8 | z8 | z8 | z8 | z8 | z8 | z8 | z8 | z8 | z8 | z8 | z8 | %18
 z8 | z8 | z8 | z8 | z8 | z8 | z8 | z8 | z8 | z8 | z8 | z8 | z8 | z8 | z8 | z8 | z8 | z8 | z8 | %37
 z8 | z8 | z8 | z8 | z8 | z8 | z8 | z8 | z8 | z8 | z8 | z8 | z8 | z8 | z8 | z8 |[M:3/4] z6 | z6 | %55
 z6 | z6 | z6 | z6 | z6 | z6 | z6 | z6 | z6 | z6 |[M:4/4] z8 | z8 | z8 | z8 | z8 | z8 | z8 | z8 | %73
 z8 |] %74
V:3
 G,,4 C,4 | D,8 | C,6 F,,G,, | C,8 | C,4 F,4 | G,8 | F,6 B,,C, | F,,4- F,, F,E,D, | _E,8 | %9
 _E,2 C,2 D,C, D,2 | G,,4- G,, G,F,E, | F,4 C,4 | D,2 G,,2 A,,G,, A,,2 | D,4- D, G,F,D, | %14
 _E,4 D,4 | C,4 F,4 | B,,2 C,D, _E,3 F, | G,4 G,,4 | D,2 _E,D, C,2 D,2 | G,,4- G,, G,,B,,C, | %20
 D,4 B,,4- | B,,2 B,,2 A,,4 | ^F,,4 B,,4 | G,,2 G,4 ^F,2 | G,4- G, _E,D,C, | D,2 E,F, G,2 F,D, | %26
 _E,4 D,3 C, | B,,4 C,4- | C,4 G,,4 | C,2 D,E, F,2 E,F, | G,2 F,2 _E,2 C,2 | D,8 | G,,8 | %33
 G,,2 A,,B,, C,2 D,2 | G,,4 D,4 | =B,,4 C,4 | D,2 E,2 F,4 | D,4 C,4 | F,4 D,4 | _E,8 | F,8 | %41
 B,,2 C,D, _E,2 D,2 | G,4 C,4- | C,4 G,,4 | C,4 F,4 | D,4 A,,4 | D,2 G,,A,, B,,C,D,B,, | D,4 B,,4 | %48
 C,8 | F,,4 ^F,,4 | A,,8 | D,4 =B,,4 | D,8 |[M:3/4] G,,4 F,,2 | A,,4 D,2 | G,,3 C, D,2 | G,,4 G,2 | %57
 G,4 ^F,2 | G,4 G,2 | F,3 D, E,2 | B,,C, D,E, F,D, | _E,2 C,2 D,2 | B,,2 G,,2 C,2 | F,,4 F,,2 | %64
 B,,3 C, G,,2 |[M:4/4] C,4 C,4- | C,2 D,E, F,2 G,2 | F,2 _E,2 F,2 B,,2- | B,,2 C,D, _E,3 E, | %69
 D,2 C,2 D,2 G,,2- | G,,2 A,,B,, C,2 D,2 | B,,6 C,2 | D,8 | G,,8 |] %74

